!!!OTL: O matko milosciwa
**kern
*staff1
=1-
*clefC2
*k[]
1d
1A
=2
2.A/
4B/
2c/
2d/
=3
1A
1d
=4
1d
2.c/
4d/
=5
2e\
2f-\
1e
1A
=6
!!linebreak:original
1d
2c/
1c
2d/
=7
!LO:TX:Y=-37:t=P
1A
1d
=8
2d/
1d
2d/
=9
1f
2f\
1c
2d/
1A
=10
0d
==
*-
!!title: @{OTL}, @{GTL}, ed. @{ENC}
!!!pag:
!!!GTL: Hymnbook D
!!!EFL: 
!!!YEM: Creative Commons CC/BY/NC/SA 4.0
!!!ENC: Marcin Konik
!!!END: 2015-0m-dd
!!!EED: Marcin Konik
!!!EEV: 
!!!ONB: Encoded in vim by Marcin Konik
!!!CharacterEncoding: utf-8
!!!RDF**kern: l=long note in original notation
!!!RDF**kern: i=editorial accidental
!!muse2ps: z14jc180F
!!!COM: Anonim
!!!CDT: [?]
!!!TXO: Polish
!!!ODT: 
!!!GTL: Hymnbook D
!!!ARL: Opactwo św. Wojciecha, Staniątki 
!!!voices:	1
